images/icons/coinbase.svg

<svg width="190" height="42" viewBox="0 0 190 42" fill="none" xmlns="http://www.w3.org/2000/svg">
<path fill-rule="evenodd" clip-rule="evenodd" d="M15.6265 36.0705C17.0913 36.0705 18.4615 35.8028 19.753 35.283C19.753 35.3302 22.3833 39.4095 22.4305 39.4253C20.1026 40.6725 17.4955 41.3067 14.8548 41.2681C6.77502 41.2838 0.916016 35.9445 0.916016 27.4552C0.916016 18.9028 7.05852 13.595 14.8548 13.595C17.611 13.595 19.8003 14.1935 21.9895 15.359L19.4695 19.6116C18.1465 19.0918 16.792 18.8555 15.3745 18.8555C10.6023 18.8555 6.90102 21.8953 6.90102 27.4552C6.90102 32.7157 10.4763 36.0705 15.6265 36.0705ZM35.9913 13.595C43.9293 13.595 49.678 19.2178 49.678 27.4552C49.678 35.6453 43.9293 41.2681 35.9755 41.2681C28.1005 41.2681 22.3518 35.6453 22.3518 27.4552C22.3518 19.2178 28.1005 13.595 35.9913 13.595ZM35.9913 18.6665C31.5655 18.6665 28.3368 22.0843 28.3368 27.4552C28.3368 32.7787 31.5655 36.1965 35.9913 36.1965C40.5273 36.1965 43.7088 32.7787 43.7088 27.4552C43.7088 22.0843 40.5273 18.6665 35.9913 18.6665ZM53.4423 40.6696V14.1935H59.3643V40.6538H53.4423V40.6696ZM52.6548 6.05064C52.7162 5.10868 53.1337 4.22537 53.8225 3.57996C54.5114 2.93456 55.4199 2.57542 56.3639 2.57542C57.3078 2.57542 58.2164 2.93456 58.9053 3.57996C59.5941 4.22537 60.0116 5.10868 60.073 6.05064C60.0732 7.03967 59.6858 7.9894 58.9939 8.69607C58.3019 9.40275 57.3606 9.81008 56.3718 9.83068C55.383 9.81008 54.4416 9.40275 53.7497 8.69607C53.0577 7.9894 52.6703 7.03967 52.6705 6.05064H52.6548ZM64.5303 15.863C68.4094 14.4049 72.5139 13.6373 76.6578 13.595C83.4303 13.595 87.7143 16.1623 87.7143 23.6279V40.6696H81.871V24.1791C81.871 20.3518 79.4928 18.9815 76.201 18.9815C74.1063 18.9815 72.0115 19.265 70.4523 19.7533V40.6538H64.546V15.863H64.5303ZM92.6755 0.0183105H98.5975V14.9022C99.8575 14.2407 102.299 13.595 104.63 13.595C112.284 13.595 118.017 18.4775 118.017 26.9826C118.017 35.535 112.347 41.2681 102.551 41.2681C98.7235 41.2681 95.3688 40.4806 92.6755 39.5356V0.0183105ZM98.5975 35.6453C99.7315 36.0075 101.228 36.1965 102.724 36.1965C108.158 36.1965 112.048 33.204 112.048 27.1086C112.048 21.9583 108.394 18.9185 103.921 18.9185C101.59 18.9185 99.7945 19.5171 98.5975 20.1786V35.6453ZM135.138 22.9191C135.138 20.0526 132.964 18.7295 130.035 18.7295C126.995 18.7295 124.601 19.6273 122.396 20.8873V15.737C125.034 14.3035 127.993 13.5663 130.995 13.595C136.791 13.595 140.918 15.989 140.918 22.6198V40.1341C138.398 40.7956 134.823 41.2051 131.83 41.2051C124.963 41.2051 119.939 39.126 119.939 33.141C119.939 27.7544 124.538 25.1241 132.192 25.1241H135.122V22.9191H135.138ZM135.138 29.0617H132.618C128.491 29.0617 125.798 30.2744 125.798 32.9677C125.798 35.7083 128.318 36.7793 131.893 36.7793C132.791 36.7793 134.051 36.669 135.122 36.4958V29.0774L135.138 29.0617ZM145.218 33.5032C147.526 35.3319 150.355 36.3798 153.297 36.4958C155.928 36.4958 157.66 35.598 157.66 33.5032C157.66 31.3455 156.101 30.5737 152.699 29.6759C147.186 28.4159 144.871 26.2109 144.871 21.5961C144.871 16.2253 148.935 13.595 154.321 13.595C157.314 13.595 159.692 14.2407 161.913 15.6268V21.0606C159.802 19.376 157.194 18.4348 154.494 18.383C151.927 18.383 150.557 19.6431 150.557 21.3756C150.557 23.1081 151.675 23.9901 154.731 24.8406C160.779 26.1479 163.393 28.4159 163.393 33.1882C163.393 38.7638 159.156 41.2681 153.423 41.2681C150.548 41.3255 147.713 40.584 145.233 39.126V33.5032H145.218ZM171.504 28.7782V28.8884C171.867 33.6135 175.914 36.1965 180.057 36.1965C183.695 36.1965 186.325 35.346 188.955 33.6135V38.811C186.561 40.4963 183.033 41.2681 179.631 41.2681C171.378 41.2681 165.771 36.0075 165.771 27.6442C165.771 19.2178 171.268 13.595 178.56 13.595C186.278 13.595 189.916 18.5563 189.916 25.7856V28.7782H171.489H171.504ZM184.356 24.9509C184.23 20.8243 182.199 18.5563 178.371 18.5563C174.969 18.5563 172.465 20.9503 171.678 24.9509H184.356Z" fill="#424147"/>
</svg>

<svg width="190" height="42" fill="none" xmlns="http://www.w3.org/2000/svg"><path fill-rule="evenodd" clip-rule="evenodd" d="M15.627 36.07c1.464 0 2.835-.267 4.126-.787 0 .047 2.63 4.127 2.677 4.142a15.56 15.56 0 0 1-7.575 1.843C6.775 41.284.916 35.944.916 27.455c0-8.552 6.143-13.86 13.939-13.86 2.756 0 4.945.598 7.134 1.764l-2.52 4.253a11.04 11.04 0 0 0-4.095-.756c-4.772 0-8.473 3.04-8.473 8.6 0 5.26 3.575 8.615 8.726 8.615ZM35.99 13.596c7.938 0 13.687 5.623 13.687 13.86 0 8.19-5.749 13.813-13.703 13.813-7.875 0-13.623-5.623-13.623-13.813 0-8.237 5.748-13.86 13.64-13.86Zm0 5.071c-4.425 0-7.654 3.418-7.654 8.79 0 5.323 3.229 8.74 7.654 8.74 4.536 0 7.718-3.417 7.718-8.74 0-5.372-3.182-8.79-7.718-8.79ZM53.442 40.67V14.193h5.922v26.46h-5.922v.017Zm-.787-34.62a3.717 3.717 0 0 1 7.418 0 3.78 3.78 0 0 1-3.701 3.78 3.78 3.78 0 0 1-3.702-3.78h-.015Zm11.875 9.813a35.498 35.498 0 0 1 12.128-2.268c6.772 0 11.056 2.567 11.056 10.033V40.67h-5.843V24.18c0-3.828-2.378-5.198-5.67-5.198-2.095 0-4.19.283-5.749.771v20.9h-5.906v-24.79h-.016ZM92.675.018h5.922v14.884c1.26-.661 3.702-1.307 6.033-1.307 7.654 0 13.387 4.882 13.387 13.388 0 8.552-5.67 14.285-15.466 14.285-3.828 0-7.182-.787-9.876-1.732V.018Zm5.922 35.627c1.135.362 2.631.551 4.127.551 5.434 0 9.324-2.992 9.324-9.087 0-5.15-3.654-8.19-8.127-8.19-2.331 0-4.127.598-5.324 1.26v15.466Zm36.541-12.726c0-2.866-2.174-4.19-5.103-4.19-3.04 0-5.434.898-7.639 2.158v-5.15a17.655 17.655 0 0 1 8.599-2.142c5.796 0 9.923 2.394 9.923 9.025v17.514c-2.52.662-6.095 1.071-9.088 1.071-6.867 0-11.891-2.079-11.891-8.064 0-5.387 4.599-8.017 12.253-8.017h2.93V22.92h.016Zm0 6.143h-2.52c-4.127 0-6.82 1.212-6.82 3.906 0 2.74 2.52 3.811 6.095 3.811.898 0 2.158-.11 3.229-.283v-7.419l.016-.015Zm10.08 4.441a13.89 13.89 0 0 0 8.079 2.993c2.631 0 4.363-.898 4.363-2.993 0-2.157-1.559-2.93-4.961-3.827-5.513-1.26-7.828-3.465-7.828-8.08 0-5.37 4.064-8.001 9.45-8.001 2.993 0 5.371.646 7.592 2.032v5.434a12.272 12.272 0 0 0-7.419-2.678c-2.567 0-3.937 1.26-3.937 2.993 0 1.732 1.118 2.614 4.174 3.465 6.048 1.307 8.662 3.575 8.662 8.347 0 5.576-4.237 8.08-9.97 8.08a15.548 15.548 0 0 1-8.19-2.142v-5.623h-.015Zm26.286-4.725v.11c.363 4.726 4.41 7.308 8.553 7.308 3.638 0 6.268-.85 8.898-2.582v5.197c-2.394 1.685-5.922 2.457-9.324 2.457-8.253 0-13.86-5.26-13.86-13.624 0-8.426 5.497-14.049 12.789-14.049 7.718 0 11.356 4.961 11.356 12.19v2.993h-18.427.015Zm12.852-3.827c-.126-4.127-2.157-6.395-5.985-6.395-3.402 0-5.906 2.394-6.693 6.395h12.678Z" fill="#424147"/></svg>
